apps/www/public/images/career/icons/billing-light.svg

<svg width="49" height="49" viewBox="0 0 49 49" fill="none" xmlns="http://www.w3.org/2000/svg">
<path d="M38.8733 7.13554L37.7064 7.1355L18.0235 7.1355C15.4562 7.1355 13.375 9.21668 13.375 11.784L13.375 12.0053V39.0138V41.8606H31.4791C34.0463 41.8606 36.1275 39.7794 36.1275 37.2122V13.6548L36.1081 11.2315" stroke="#299764" stroke-width="2" stroke-miterlimit="10" stroke-linejoin="bevel"/>
<path d="M37.3191 7.13553L39.2058 7.1355M39.2058 7.1355C37.4971 7.1355 36.1118 8.52074 36.1118 10.2295L36.1192 11.1448L36.1265 12.06L36.1119 13.6126L42.3 13.6126V10.2295C42.3 8.5207 40.9146 7.1355 39.2058 7.1355Z" stroke="#299764" stroke-width="2" stroke-miterlimit="10" stroke-linejoin="bevel"/>
<path d="M23.9648 14.5359L31.9847 14.5359" stroke="#92CEAC" stroke-width="2.01025" stroke-miterlimit="10" stroke-linejoin="bevel"/>
<path d="M23.9648 17.5359L31.9847 17.5359" stroke="#92CEAC" stroke-width="2.01025" stroke-miterlimit="10" stroke-linejoin="bevel"/>
<path d="M23.9648 20.5359L31.9847 20.5359" stroke="#92CEAC" stroke-width="2.01025" stroke-miterlimit="10" stroke-linejoin="bevel"/>
<path d="M23.9648 23.5359L31.9847 23.5359" stroke="#92CEAC" stroke-width="2.01025" stroke-miterlimit="10" stroke-linejoin="bevel"/>
<path d="M17.2461 26.5359H31.9846" stroke="#92CEAC" stroke-width="2.01025" stroke-miterlimit="10" stroke-linejoin="bevel"/>
<path d="M21.7239 17.1679C21.7239 16.1613 20.9079 15.3453 19.9013 15.3453M19.9013 15.3453C18.8946 15.3453 18.0786 16.1613 18.0786 17.1679C18.0786 18.1746 18.8946 18.9906 19.9013 18.9906C20.9079 18.9906 21.7239 19.8066 21.7239 20.8132C21.7239 21.8198 20.9079 22.6359 19.9013 22.6359C18.8946 22.6359 18.0786 21.8198 18.0786 20.8132M19.9013 15.3453V13.5211M19.9013 22.6632V24.5415" stroke="#92CEAC" stroke-width="2" stroke-miterlimit="10" stroke-linejoin="bevel"/>
<path d="M7.14746 37.2122C7.14746 39.7795 9.22865 41.8607 11.7959 41.8607H31.4789C28.9116 41.8607 26.8304 39.7795 26.8304 37.2122V32.1294H7.14746V37.2122Z" fill="#5BB98C"/>
<path d="M36.1273 37.2122C36.1273 39.7795 34.0461 41.8607 31.4789 41.8607M31.4789 41.8607C28.9116 41.8607 26.8304 39.7795 26.8304 37.2122V32.1294H7.14746V37.2122C7.14746 39.7795 9.22865 41.8607 11.7959 41.8607H31.4789Z" stroke="#299764" stroke-width="2" stroke-miterlimit="10" stroke-linejoin="bevel"/>
</svg>

<svg xmlns="http://www.w3.org/2000/svg" width="49" height="49" fill="none" viewBox="0 0 49 49"><path stroke="#299764" stroke-linejoin="bevel" stroke-miterlimit="10" stroke-width="2" d="M38.873 7.136h-20.85a4.65 4.65 0 0 0-4.648 4.648v30.077h18.104a4.65 4.65 0 0 0 4.648-4.649V13.655l-.019-2.423"/><path stroke="#299764" stroke-linejoin="bevel" stroke-miterlimit="10" stroke-width="2" d="M37.32 7.136h1.886m0 0a3.094 3.094 0 0 0-3.094 3.093l.007.916.008.915-.015 1.553H42.3V10.23a3.094 3.094 0 0 0-3.094-3.094Z"/><path stroke="#92ceac" stroke-linejoin="bevel" stroke-miterlimit="10" stroke-width="2.01" d="M23.965 14.536h8.02M23.965 17.536h8.02M23.965 20.536h8.02M23.965 23.536h8.02M17.246 26.536h14.739"/><path stroke="#92ceac" stroke-linejoin="bevel" stroke-miterlimit="10" stroke-width="2" d="M21.724 17.168a1.823 1.823 0 0 0-1.823-1.823m0 0a1.823 1.823 0 1 0 0 3.646 1.823 1.823 0 1 1-1.822 1.822m1.822-5.468v-1.824m0 9.142v1.878"/><path fill="#5bb98c" d="M7.147 37.212a4.65 4.65 0 0 0 4.649 4.649h19.683a4.65 4.65 0 0 1-4.649-4.649V32.13H7.147z"/><path stroke="#299764" stroke-linejoin="bevel" stroke-miterlimit="10" stroke-width="2" d="M36.127 37.212a4.65 4.65 0 0 1-4.648 4.649m0 0a4.65 4.65 0 0 1-4.649-4.649V32.13H7.147v5.083a4.65 4.65 0 0 0 4.649 4.649z"/></svg>
